img/icon_viber.svg

<svg width="41" height="42" viewBox="0 0 41 42" fill="none" xmlns="http://www.w3.org/2000/svg">
<path fill-rule="evenodd" clip-rule="evenodd" d="M20.5 0.64209C31.8218 0.64209 41 9.81367 41 21.1274C41 32.4411 31.8218 41.6127 20.5 41.6127C9.17816 41.6127 0 32.4411 0 21.1274C0 9.81367 9.17816 0.64209 20.5 0.64209ZM25.9616 18.5312C25.8619 17.7218 25.613 17.0862 25.1708 16.5232C24.5967 15.7983 23.863 15.3643 22.7768 15.1068C22.0689 14.9351 21.7829 14.9548 21.5269 15.1885C21.2884 15.4075 21.2418 15.8464 21.4241 16.1306C21.5522 16.337 21.7001 16.4109 22.1113 16.4915C22.6589 16.5922 23.0374 16.7229 23.3816 16.9196C24.1123 17.3412 24.4526 18.0009 24.489 19.069C24.506 19.5705 24.5494 19.7247 24.7247 19.9026C25.0496 20.2277 25.6278 20.1645 25.873 19.7754C25.963 19.6287 25.9767 19.5649 25.9862 19.2243C25.9925 19.0135 25.9835 18.6997 25.9616 18.5312ZM25.9714 13.565C27.7086 14.9688 28.6792 16.964 28.8235 19.4439C28.8842 20.4206 28.8036 20.7387 28.4587 20.92C28.1476 21.0879 27.795 21.0326 27.5532 20.7798C27.3929 20.6154 27.3314 20.3905 27.3337 19.9924C27.3408 18.8915 27.087 17.6621 26.6743 16.809C26.1967 15.8162 25.4584 14.9712 24.5296 14.3535C23.7161 13.8109 22.6394 13.4444 21.5955 13.3532C20.9184 13.294 20.6766 13.1794 20.5466 12.855C20.4661 12.661 20.4874 12.3255 20.5818 12.1753C20.671 12.0367 20.8713 11.8835 21.0129 11.843C21.163 11.7993 22.0376 11.8757 22.5127 11.9701C23.8095 12.2339 24.9926 12.7762 25.9714 13.565ZM31.9905 28.994C31.9419 28.8523 31.8287 28.6336 31.7477 28.5081C31.2379 27.7388 28.4989 25.5968 27.1313 24.8963C26.3505 24.4954 25.7719 24.3618 25.343 24.4873C24.8818 24.6169 24.639 24.8315 23.8663 25.7911C23.5548 26.1758 23.2351 26.5362 23.1501 26.5928C22.9397 26.7386 22.5271 26.8561 22.2358 26.8561C21.5601 26.852 20.3342 26.4147 19.3915 25.8397C18.6592 25.3944 17.7206 24.5967 17.0004 23.8071C16.1507 22.8798 15.5722 22.0619 15.1149 21.1387C14.5243 19.9523 14.3746 19.2275 14.6213 18.697C14.682 18.5634 14.763 18.4217 14.7993 18.3771C14.8358 18.3367 15.2161 18.0249 15.6368 17.6847C16.4622 17.0288 16.5957 16.879 16.7495 16.4295C16.9437 15.8586 16.8911 15.2755 16.5917 14.6884C16.3611 14.243 15.7582 13.2712 15.3213 12.6436C14.7427 11.8176 13.3024 10.0522 13.0151 9.81321C12.4972 9.39214 11.8337 9.31921 11.1014 9.60271C10.3287 9.90235 8.88017 11.0685 8.26113 11.8824C7.70279 12.6193 7.48842 13.1416 7.45602 13.83C7.42772 14.3968 7.47625 14.6317 7.77566 15.3565C10.1182 21.0415 13.6139 25.5806 18.4164 29.1844C20.9249 31.0672 23.5264 32.5006 26.225 33.4805C27.7989 34.0514 28.4826 34.0797 29.2878 33.6101C29.6276 33.4076 30.4692 32.5451 30.9385 31.9175C31.7153 30.8728 32.0026 30.391 32.0835 30.0063C32.1402 29.7431 32.0957 29.2856 31.9905 28.994ZM30.956 16.1772C31.4488 17.4601 31.6851 18.6107 31.737 20.0134C31.7452 20.2906 31.7414 20.7983 31.7234 21.1422C31.686 21.8015 31.6502 21.9325 31.4602 22.1069C31.155 22.3932 30.5599 22.3249 30.3342 21.98C30.2164 21.7949 30.1998 21.6593 30.2226 20.889C30.2881 18.6105 29.8269 16.8264 28.716 15.0425C27.3884 12.9023 25.4027 11.4605 22.8206 10.7551C22.1621 10.5756 21.6072 10.4662 20.7441 10.3501C20.1819 10.2765 20.0588 10.2454 19.92 10.1601C19.5009 9.89183 19.4953 9.21251 19.9132 8.94016C20.1288 8.79638 20.2878 8.78996 20.9906 8.87991C23.0516 9.13727 24.8906 9.74922 26.4017 10.674C27.4848 11.3377 28.1677 11.9339 29.047 12.9782C29.977 14.0919 30.4694 14.9153 30.956 16.1772Z" fill="white"/>
</svg>

<svg width="41" height="42" fill="none" xmlns="http://www.w3.org/2000/svg"><path fill-rule="evenodd" clip-rule="evenodd" d="M20.5.642C31.822.642 41 9.814 41 21.127c0 11.314-9.178 20.486-20.5 20.486S0 32.44 0 21.127 9.178.642 20.5.642zm5.462 17.89c-.1-.81-.349-1.446-.791-2.009-.574-.725-1.308-1.159-2.394-1.416-.708-.172-.994-.152-1.25.082-.239.219-.285.657-.103.942.128.206.276.28.687.36.548.101.926.232 1.27.429.731.421 1.072 1.08 1.108 2.149.017.502.06.656.236.834a.754.754 0 001.148-.128c.09-.146.104-.21.113-.55a5.396 5.396 0 00-.024-.694zm.01-4.967c1.737 1.404 2.707 3.399 2.851 5.879.061.977-.02 1.295-.364 1.476a.736.736 0 01-.906-.14c-.16-.165-.222-.39-.22-.788.008-1.1-.246-2.33-.659-3.183a6.15 6.15 0 00-2.144-2.456c-.814-.542-1.89-.909-2.934-1-.678-.059-.92-.174-1.05-.498-.08-.194-.059-.53.036-.68a.92.92 0 01.43-.332c.151-.044 1.026.033 1.5.127 1.297.264 2.48.806 3.46 1.595zm6.018 15.429a2.722 2.722 0 00-.242-.486c-.51-.77-3.25-2.911-4.617-3.612-.78-.4-1.36-.534-1.788-.409-.461.13-.704.345-1.477 1.304-.311.385-.63.745-.716.802-.21.146-.623.263-.914.263-.676-.004-1.902-.441-2.845-1.016-.732-.446-1.67-1.243-2.39-2.033-.85-.927-1.429-1.745-1.886-2.668-.59-1.187-.74-1.912-.494-2.442a1.97 1.97 0 01.178-.32 25.4 25.4 0 01.838-.692c.825-.656.959-.806 1.113-1.255.194-.571.141-1.155-.158-1.742-.23-.445-.834-1.417-1.27-2.044-.58-.826-2.02-2.592-2.307-2.83-.518-.422-1.181-.495-1.914-.211-.772.3-2.22 1.466-2.84 2.28-.558.736-.773 1.259-.805 1.947-.028.567.02.802.32 1.527 2.342 5.684 5.838 10.224 10.64 13.827 2.509 1.883 5.11 3.317 7.809 4.296 1.574.571 2.258.6 3.063.13.34-.202 1.181-1.065 1.65-1.692.777-1.045 1.065-1.527 1.146-1.912.056-.263.012-.72-.094-1.012zm-1.034-12.817a11.29 11.29 0 01.781 3.836 16.7 16.7 0 01-.014 1.13c-.037.659-.073.79-.263.964-.305.286-.9.218-1.126-.127-.118-.185-.134-.32-.111-1.091.065-2.279-.396-4.063-1.507-5.846-1.328-2.14-3.313-3.582-5.895-4.288a14.668 14.668 0 00-2.077-.405c-.562-.073-.685-.105-.824-.19-.42-.268-.425-.947-.007-1.22.216-.144.375-.15 1.078-.06 2.06.257 3.9.87 5.41 1.794 1.084.664 1.767 1.26 2.646 2.304.93 1.114 1.422 1.937 1.909 3.2z" fill="#fff"/></svg>
